X: 20604
T: L'ABROTONE
O: Contre dance.
%R: march
B: W. Hamilton "Universal Tune-Book" Vol. 2 Glasgow 1846 p.60 #3
S: http://s3-eu-west-1.amazonaws.com/itma.dl.printmaterial/book_pdfs/hamiltonvol2web.pdf
Z: 2016 John Chambers <jc:trillian.mit.edu>
M: 2/4
L: 1/16
K: G
% - - - - - - - - - - - - - - - - - - - - - - - - -
d2 |\
g3fe2d2 | e2f2g2d2 | e2d2c2B2 | A2A2A2d2 |\
g3fe2d2 | e2f2g2d2 | (ed)cB (dc)BA | G2G2 G2 :|
|: Bc |\
d3cB2B2 | B3AG2G2 | e3dc2c2 | c3B A2(fg) |\
a3gf2e2 | (def)g (GAB)c | d3Bc2A2 | G2G2 G2 :|
% - - - - - - - - - - - - - - - - - - - - - - - - -

%%sep 1 1 500
%%sep 1 1 500

